svgs/light/ethernet.svg

<svg xmlns="http://www.w3.org/2000/svg" viewBox="0 0 512 512"><!-- Font Awesome Pro 6.0.0-alpha2 by @fontawesome - https://fontawesome.com License - https://fontawesome.com/license (Commercial License) --><path d="M480 192H448V160C448 142.326 433.674 128 416 128H384V96C384 78.326 369.674 64 352 64H160C142.328 64 128 78.326 128 96V128H96C78.328 128 64 142.326 64 160V192H32C14.328 192 0 206.326 0 224V416C0 433.674 14.328 448 32 448H480C497.674 448 512 433.674 512 416V224C512 206.326 497.674 192 480 192ZM480 416H416V336C416 327.156 408.844 320 400 320S384 327.156 384 336V416H320V336C320 327.156 312.844 320 304 320S288 327.156 288 336V416H224V336C224 327.156 216.844 320 208 320S192 327.156 192 336V416H128V336C128 327.156 120.844 320 112 320S96 327.156 96 336V416H32V224H96V160H160V96H352V160H416V224H480V416Z"/></svg>

<svg xmlns="http://www.w3.org/2000/svg" viewBox="0 0 512 512"><!--! Font Awesome Pro 6.0.0-alpha3 by @fontawesome - https://fontawesome.com License - https://fontawesome.com/license (Commercial License) --><path d="M480 192h-32V160c0-17.67-14.33-32-32-32h-32V96c0-17.67-14.33-32-32-32H160C142.3 64 128 78.33 128 96v32H96C78.33 128 64 142.3 64 160v32H32C14.33 192 0 206.3 0 224v192c0 17.67 14.33 32 32 32h448c17.67 0 32-14.33 32-32V224C512 206.3 497.7 192 480 192zM480 416h-64v-80c0-8.844-7.156-16-16-16S384 327.2 384 336V416h-64v-80c0-8.844-7.156-16-16-16S288 327.2 288 336V416H224v-80C224 327.2 216.8 320 208 320S192 327.2 192 336V416H128v-80C128 327.2 120.8 320 112 320S96 327.2 96 336V416H32V224h64V160h64V96h192v64h64v64h64V416z"/></svg>
